X: 28
M:2/4
L:1/16
K:A
u((3EFG)|A2A2 AcBd|c2c2 cedf|eagf edcB|Acea gfdB|
ed|ceae ceae|dfaf dfaf|egbg egbg|eac'a eac'a|
ceae ceae|dfaf dfaf|egbg egbg|a2a2a2:|


